X:1
T: The 92nd Highlanders
T: The Marquis of Huntly's Highlanders
R:Strathspey
Q:128
K:A
M:4/4
L:1/16
|:f2|e3A cBA2 e3A c3A|B=G3 G3B dG3 G3B|e3A cBA2 e3A c3A|B3=G E3d cA3 A3f|
e3A cBA2 e3A c3A|B=G3 G3B dG3 G3B|e3A cBA2 e3A c3A|B3=G E3d cA3 A2:|
|:B2|Aa3 g3a f3a e3d|B=g3 d3=c B=G3 G3B|Aa3 g3a e3A c3A|fa3 e3d cA3 A3B|
Aa3 g3a f3a e3d|B=g3 d3=c B=G3 G3B|c3A e3A a3A e3A|d3B =G3B cA3 A2:|
